packages/ffe-icons/icons/filled/md/3p.svg

<svg xmlns="http://www.w3.org/2000/svg" height="24" viewBox="0 -960 960 960" width="24"><path d="M333.847-417.694h292.306v-14.307q0-37.845-40.731-61.768-40.73-23.923-105.422-23.923-64.692 0-105.422 23.923-40.731 23.923-40.731 61.768v14.307ZM480-570.001q29.154 0 49.576-20.423 20.423-20.422 20.423-49.576t-20.423-49.576Q509.154-709.999 480-709.999t-49.576 20.423Q410.001-669.154 410.001-640t20.423 49.576q20.422 20.423 49.576 20.423Zm-238.461 310-80.076 80.076q-17.077 17.076-39.269 7.73-22.193-9.346-22.193-33.653v-581.843q0-30.308 21-51.308t51.308-21h615.382q30.308 0 51.308 21t21 51.308v455.382q0 30.308-21 51.308t-51.308 21H241.539Z"/></svg>

<svg xmlns="http://www.w3.org/2000/svg" height="24" viewBox="0 -960 960 960" width="24"><path d="M333.85-417.69h292.3V-432q0-37.85-40.73-61.77T480-517.69q-64.69 0-105.42 23.92-40.73 23.92-40.73 61.77v14.31ZM480-570q29.15 0 49.58-20.42Q550-610.85 550-640t-20.42-49.58Q509.15-710 480-710t-49.58 20.42Q410-669.15 410-640t20.42 49.58Q450.85-570 480-570ZM241.54-260l-80.08 80.07q-17.07 17.08-39.27 7.74Q100-181.54 100-205.85v-581.84Q100-818 121-839q21-21 51.31-21h615.38Q818-860 839-839q21 21 21 51.31v455.38Q860-302 839-281q-21 21-51.31 21H241.54Z"/></svg>
